svgs/duotone/cart-shopping-fast.svg

<svg xmlns="http://www.w3.org/2000/svg" viewBox="0 0 640 512"><!--! Font Awesome Pro 6.2.0 by @fontawesome - https://fontawesome.com License - https://fontawesome.com/license (Commercial License) Copyright 2022 Fonticons, Inc. --><path d="M523.2 288H234.7L188.5 45.5c-.9-4.8-2.4-9.3-4.4-13.5h411c26.3 0 45.5 25 38.6 50.4l-41 152.3c-8.5 31.4-37 53.3-69.5 53.3zM24 96h80c13.3 0 24 10.7 24 24s-10.7 24-24 24H24c-13.3 0-24-10.7-24-24s10.7-24 24-24zm0 80h96c13.3 0 24 10.7 24 24s-10.7 24-24 24H24c-13.3 0-24-10.7-24-24s10.7-24 24-24zm0 80H136c13.3 0 24 10.7 24 24s-10.7 24-24 24H24c-13.3 0-24-10.7-24-24s10.7-24 24-24z" class="fa-secondary"/></svg>

<svg xmlns="http://www.w3.org/2000/svg" viewBox="0 0 640 512"><!--! Font Awesome Pro 6.2.0 by @fontawesome - https://fontawesome.com License - https://fontawesome.com/license (Commercial License) Copyright 2022 Fonticons, Inc. --><defs><style>.fa-secondary{opacity:.4}</style></defs><path class="fa-primary" d="M64 24C64 10.75 74.75 0 88 0H160C171.5 0 181.4 8.19 183.6 19.51L243.9 336H552C565.3 336 576 346.7 576 360C576 373.3 565.3 384 552 384H223.1C212.5 384 202.6 375.8 200.4 364.5L140.1 48H88C74.75 48 64 37.25 64 24V24zM288 464C288 490.5 266.5 512 240 512C213.5 512 192 490.5 192 464C192 437.5 213.5 416 240 416C266.5 416 288 437.5 288 464zM480 464C480 437.5 501.5 416 528 416C554.5 416 576 437.5 576 464C576 490.5 554.5 512 528 512C501.5 512 480 490.5 480 464z"/><path class="fa-secondary" d="M551.8 288H234.7L185.1 32H605.8C626.1 32 642.3 52.25 636.6 72.66L582.6 264.7C578.7 278.5 566.1 288 551.8 288zM104 96C117.3 96 128 106.7 128 120C128 133.3 117.3 144 104 144H24C10.75 144 0 133.3 0 120C0 106.7 10.75 96 24 96H104zM120 176C133.3 176 144 186.7 144 200C144 213.3 133.3 224 120 224H24C10.75 224 0 213.3 0 200C0 186.7 10.75 176 24 176H120zM136 256C149.3 256 160 266.7 160 280C160 293.3 149.3 304 136 304H24C10.75 304 0 293.3 0 280C0 266.7 10.75 256 24 256H136z"/></svg>
